!!!COM: Palestrina, Giovanni Perluigi da
!!!OPR: Missa Sacerdos et pontifex
!!!OMD: Credo
!!!OTL: Et in Spiritum
**kern	**kern	**kern	**kern	**kern
*Ibass	*Itenor	*Itenor	*Icalto	*Icant
!Bassus	!Tenor 2	!Tenor 1	!Altus	!Cantus
*clefF4	*clefGv2	*clefGv2	*clefG2	*clefG2
*k[b-]	*k[b-]	*k[b-]	*k[b-]	*k[b-]
*G:dor	*G:dor	*G:dor	*G:dor	*G:dor
*M4/2	*M4/2	*M4/2	*M4/2	*M4/2
=114	=114	=114	=114	=114
1D	1d	1f	1a	0r
2A	2c#	2e	2a	.
[2G	[2d	[2g	[2b-	.
=115	=115	=115	=115	=115
4G]	4d]	4g]	4b-]	0r
4G	4d	4g	4b-	.
2G	2d	2g	2b-	.
1F	1f	1c	1a	.
=116	=116	=116	=116	=116
2C	2e	2c	2g	0r
1F	1f	2c	1a	.
.	.	2A	.	.
2D	2f	[2d	2a	.
=117	=117	=117	=117	=117
1.A	1.e	2d]	1.a	0r
.	.	4c#	.	.
.	.	4B	.	.
.	.	2c#	.	.
2D	2f#	2d	2a	.
=118	=118	=118	=118	=118
2D	2f#	2d	2a	0r
1G	1g	2d	1b-	.
.	.	2e	.	.
2A	2c	[2f	2a	.
=119	=119	=119	=119	=119
2B-	2d	2f]	1g	1r
2c	1c	2e	.	.
1F	.	2f	2f	2r
.	[2F	[2f	[2a	[2cc
=120	=120	=120	=120	=120
0r	2F]	2f]	2a]	2cc]
.	2F	2f	2a	2cc
.	1c	1e	1g	1cc
=121	=121	=121	=121	=121
0r	2B-	2f	2b-	2dd
.	1F	1f	1a	1cc
.	2G	2d	2g	2b-
=122	=122	=122	=122	=122
0r	1A	1c	2e	1a
.	.	.	1f	.
.	2B-	2d	.	2g
.	2c	[2g	2e	2g
=123	=123	=123	=123	=123
1r	1A	2g]	1c	1cc
.	.	2f#	.	.
2r	1G	2g	2d	2b-
[2G	.	[2g	[2b-	[2dd
=124	=124	=124	=124	=124
2G]	2.d	2g]	2b-]	2dd]
2G	.	2g	2b-	2dd
.	4d	.	.	.
1B-	1d	1f	1b-	1dd
=125	=125	=125	=125	=125
2BB-	2B-	2f	2b-	2dd
2BB-	2B-	2f	2b-	2dd
2.F	2.c	2.f	2.a	2.cc
4F	4c	4f	4a	4cc
=126	=126	=126	=126	=126
2F	2c	2f	2a	2cc
1C	1c	1e	1g	1cc
2C	2c	2e	2g	2cc
=127	=127	=127	=127	=127
1F	1A	1f	1a	1cc
1D	1F	1f	1a	1dd
=128	=128	=128	=128	=128
0E-	0G	0e-	0g	0b-
=129	=129	=129	=129	=129
1BB-	1B-	1d	1f	1b-
2r	2r	2r	2r	2r
2F	2A	2f	2a	2cc
=130	=130	=130	=130	=130
2F	2c	2f	2a	2cc
2F	2c	2f	2a	2cc
1F	1A	1f	1a	1cc
=131	=131	=131	=131	=131
1D	1F	1f	1a	1dd
1E-	1G	1e-	1g	1b-
=132	=132	=132	=132	=132
1BB-	1B-	2d	1f	2b-
.	.	1d	.	1ff
1r	1r	.	2d	.
.	.	2c	2e	2ee
=133	=133	=133	=133	=133
0r	0r	2B-	2f	2dd
.	.	2A	2f	2cc
.	.	2G	2g	2b-
.	.	[2F	[2a	[2cc
=134	=134	=134	=134	=134
0r	0r	2F]	2a]	2cc]
.	.	2G	1g	2b-
.	.	1d	.	1a
.	.	.	2f#	.
=135	=135	=135	=135	=135
2r	2r	2G	[0g	1g
2G	2d	2B-	.	.
2G	2d	2B-	.	1r
2G	2d	2B-	.	.
=136	=136	=136	=136	=136
1C	1e-	1c	0g]	0r
2G	2d	2B-	.	.
2G	2d	2B-	.	.
=137	=137	=137	=137	=137
2F	2d	2A	1r	1r
2E-	2c	2G	.	.
2D	2d	1A	2r	2r
2D	2f#	.	2a	2dd
=138	=138	=138	=138	=138
2D	2f#	0r	2a	2dd
2G	2g	.	2b-	2dd
2.C	2.g	.	2.cc	2.ee-
4C	4g	.	4cc	4ee-
=139	=139	=139	=139	=139
2D	2f#	0r	2a	2dd
2d	2f#	.	2a	2dd
2G	2g	.	2b-	2dd
2A	2e	.	2a	2cc#
=140	=140	=140	=140	=140
1B-	2d	2r	1f	1dd
.	2d	2f	.	.
2r	2.d	2.f	2r	2r
2B-	.	.	2b-	2dd
.	4d	4f	.	.
=141	=141	=141	=141	=141
2.B-	0d	1.f	2.b-	2.dd
4B-	.	.	4b-	4dd
1B-	.	.	2b-	2dd
.	.	2d	2f	2dd
=142	=142	=142	=142	=142
1r	1r	2e-	2g	2b-
.	.	2B-	1b-	2dd
1F	2r	1f	.	1cc
.	2f	.	2a	.
=143	=143	=143	=143	=143
2G	2d	1B-	1b-	1b-
1B-	2d	.	.	.
.	1c	1F	1r	1r
2A	.	.	.	.
=144	=144	=144	=144	=144
2B-	2B-	2r	2r	1.dd
1BB-	1d	1f	1b-	.
2BB-	2d	2f	2b-	2dd
=145	=145	=145	=145	=145
2D	2d	2f	2a	2dd
2D	2d	2f	2a	2dd
1C	1G	2g	1cc	1ee-
.	.	2c	.	.
=146	=146	=146	=146	=146
1BB-	1B-	4d	1f	1dd
.	.	4e	.	.
.	.	1f	.	.
2F	2A	.	2a	2cc
2F	2A	2c	2a	2cc
=147	=147	=147	=147	=147
1C	1c	1e-	1g	1cc
1G	4B-	2d	2g	2dd
.	4A	.	.	.
.	4G	[2g	[2b-	[2dd
.	4A	.	.	.
=148	=148	=148	=148	=148
0r	4B-	2g]	2b-]	2dd]
.	4c	.	.	.
.	2d	2f	2a	2dd
.	2r	1e-	1g	1cc
.	[2g	.	.	.
=149	=149	=149	=149	=149
1r	2g]	1d	1a	1dd
.	2f#	.	.	.
[1G	2g	[1B	2r	2r
.	2d	.	[2g	[2dd
=150	=150	=150	=150	=150
2G]	2.d	2B]	2g]	2dd]
2G	.	2B	2g	2dd
.	4d	.	.	.
2G	2d	2B	2g	2dd
2G	2d	2B	2g	2dd
=151	=151	=151	=151	=151
1C	2.e	1c	2g	1gg
.	.	.	4c	.
.	4f	.	4d	.
1C	2g	1c	4e	2ee
.	.	.	4f	.
.	2e	.	2g	[2cc
=152	=152	=152	=152	=152
2F	2f	2A	2a	4cc]
.	.	.	.	4a
2D	2f	2A	2a	1dd
1AA	1e	1A	1a	.
.	.	.	.	2cc#
=153	=153	=153	=153	=153
2D	2d	2A	2f#	0dd
2D	2d	2A	2f#	.
1G	1d	1B-	1g	.
=154	=154	=154	=154	=154
2D	2d	2A	2f	0r
2G	2d	2B-	2g	.
2F	2f	2c	2a	.
2D	2f	2d	2b-	.
=155	=155	=155	=155	=155
2.F	2.f	2.c	2.a	1r
4G	4d	4B-	4g	.
1D	[1d	2A	2f#	2r
.	.	2d	2f#	2a
=156	=156	=156	=156	=156
0r	1d]	1G	1g	1b-
.	1r	2d	2f	2a
.	.	2g	2g	2b-
=157	=157	=157	=157	=157
0r	0r	2f	2a	2cc
.	.	2d	2b-	2dd
.	.	2.f	2.a	2.cc
.	.	4g	4g	4b-
=158	=158	=158	=158	=158
0r	2r	1d	2f	2a
.	4G	.	2g	4b-
.	4A	.	.	4cc
.	4B-	2r	2.f	4dd
.	4c	.	.	4ee
.	[2d	4d	.	[2ff
.	.	4e	4g	.
=159	=159	=159	=159	=159
0r	4d]	4f	4a	4ff]
.	4c	4g	4b-	4ee
.	4A	2.a	1cc	4cc
.	4B-	.	.	4dd
.	1c	.	.	1ee
.	.	4g	.	.
.	.	[2g	2b-	.
=160	=160	=160	=160	=160
0D	1d	2g]	0a	1dd
.	.	4f#	.	.
.	.	4e	.	.
.	2r	1f#	.	2.dd
.	[2d	.	.	.
.	.	.	.	4cc
=161	=161	=161	=161	=161
0G	4d]	1g	2g	4b-
.	4c	.	.	4a
.	4B-	.	2.b-	4g
.	4A	.	.	4a
.	4G	2r	.	4b-
.	4A	.	4a	4cc
.	2B-	[2g	4g	2dd
.	.	.	4f	.
=162	=162	=162	=162	=162
0C	2.c	4g]	4e-	0cc
.	.	4f	4d	.
.	.	4e-	2c	.
.	4d	4d	.	.
.	1e-	1c	1g	.
=163	=163	=163	=163	=163
0G	0d	0B	0g	0dd
==	==	==	==	==
*-	*-	*-	*-	*-
!!!CDT: 1525/^1526/-1594/2/2
!!!OCY: Italia
!!!AGN: Mass (Paraphrase)
!!!AST: renaissance, vocal
!!!ASW: Antiphon
!!!PWK: Masses, Book 7
!!!RNB: Cadence finals: C,D
!!!YOR: Le Opere Complete, v. 23, p. 82
!!!YOO: Rome, Italy: Fratelli Scalera
!!!END: 1992//
!!!EED: John Miller
!!!YEC: Copyright 2000, John Miller
!!!YEN: United States of America
!!!YEM: Rights to all derivative electronic formats reserved.
!!!YEM: Refer to licensing agreement for further details.
!!!YEM: This file must be accompanied by the licensing agreement.
!!!YEM: A copy of the licensing agreement may be found at http://www.music-cog.ohio-state.edu/HumdrumDatabases/Palestrina/license.txt
!!!EMD: converted to Humdrum by Bret Aarden
